X: 1
T: Seven Stars, The
C: Trad
R: jig
M: 6/8
L: 1/8
K: Dmaj
|: d2A A2F | GAB A3 | Bcd efg | fed cBA |
d2A A2F | GAB A3 | Bcd efg | Adc d3 :|
|: e2A A2f | efg f3 | efg fed | cdB A3 |
BGB AFA | BGB AFA | Bcd efg | Adc d3 :|
